X: 90
T:Minstrel Boy
M:4/4
L:1/8
R:Strathspey
K:A
E|A3 B dcBA|c2 e2 a2 ga|f3 e c&gt;dec|B4 A2 "'"E2|A3 B dcBA|!
c2 e2 a2 ga|f3 e c&gt;dec|B4 A2 z2|| a2 g2 f2 ga|g2 f2 e3 =f|f3 c c2 e2|!
f2 g2 a2 e2|A3 B dcBA|c2 e2 a2 ga|f2 e2 c&gt;dec|B4 A2||

